X:1
T:Laudate Dominum
T:Maître Gosse
T:Source : Liber Motettorum IX---Paris---P.Attaignant---1534. Editor : André Vierendeels (21/04/18)
T:Laudate Dominum
T:©
T:©
T:©
T:©
C:Maître Gosse
Z:©
%%score [ 1 2 [ 3 4 ] ]
L:1/8
Q:1/4=120
M:2/2
K:F
V:1 treble nm="Soprano" snm="S"
V:2 treble nm="Alto" snm="A"
V:3 treble-8 nm="Tenor 1" snm="T 1"
V:4 treble-8 nm="Tenor 2" snm="T 2"
V:1
 z8 | z8 | z8 | z8 | G4 d4- | d2 d2 d4 | c4 B3 c | d2 e4 d2- | d2 c2 d4 | z2 d2 d2 d2 | %10
w: ||||Lau- da-|* te Do-|mi- num o-|mnes gen- *|* * tes,|lau- da- te|
 f3 e dc B2 | G2 B4 AG | FGAF G2 A2 | B2 c2 BA A2- | A2 G2 A4 | z2 A2 A2 A2 | c6 BA | G2 A2 FGAB | %18
w: e- * * * *|um o- * *||mnes po- * * *|* pu- li,|lau- da- te|o- * *|* mnes po- * * *|
 c2 A4 G2- | G2 F2 G2 B2- | B2 A2 G2 F2 | G4 F4 | z8 | z8 | z8 | z2 A4 G2 | A2 E2 F3 G | %27
w: |||pu- li,||||quo- ni-|am con- fir- *|
 AB c2 B2 A2- | A2 G2 A4 | G2 A3 G E2 | F4 D2 d2- | d2 c2 d2 e2 | f2 e3 d d2- | d2 c2 d2 f2- | %34
w: * * ma- * *|* ta est|su- per _ _|_ nos mi-|* se- ri- cor-|di- a _ _|_ e- ius, et|
 f2 e2 d2 c2 | B6 A2 | G2 F2 G2 B2- | B2 AG F2 A2- | A2 G2 F2 A2- | A2 G4 F2 | G4 z4 | z4 z2 B2- | %42
w: _ ve- ri- tas|Do- mi-|ni ma- * net|_ _ _ _ in|_ ae- * ter-||num,|et|
 B2 A2 G2 F2 | G2 B4 AG | F2 A4 G2 | F2 A4 G2- |"^#" G2 F2 G4- | G8 |] %48
w: _ ve- ri- tas|Do- * mi- *|ni ma- net|in ae- ter-|* * num.|_|
V:2
 z8 | z8 | z8 | z8 | z4 D4 | G6 G2 | A2 F2 G2 B2- | B2 A2 G2 F2 | E4 D2 G2 | G2 G2 B3 A/G/ | %10
w: ||||Lau-|da- te|Do- mi- num o-|* mnes gen- *|* tes, lau-|da- te e- * *|
 F2 D2 F2 G2- | G2 FE F3 E | D2 C2 B,2 A,2 | G,4 z2 D2 | D2 D2 F4- | F2 ED C2 D2 | A,2 CD EF G2- | %17
w: um o- mnes po-|* * * pu- *||li, lau-|da- te o-|* * * * mnes|po- * * * * *|
 G2 C2 F4 | E2 F3 E C2 | D8- | D8 | z8 | z8 | z8 | z2 D4 C2 | D2 A,2 B,4 | A,2 C2 D2 F2- | %27
w: |* pu- * *|li,|_||||quo- ni-|am con- fir-|ma- ta est su-|
 F2 E2 D2 C2 | D6 A,2 | B,2 A,2 A,2 G,2 | A,2 A,2 G,4 | z2 A4 G2 | F2 G3 FED | E4 D4 | z8 | z4 F4 | %36
w: * * * per|nos, mi-|se- ri- cor- di|a e- ius,|mi- se-|ri- cor- * * *|di- a,||et|
 E2 D2 C2 B,2 | D2 E2 F4 | C4 D2 F2- | FE D3 CB,A, | B,4 A,4 | z8 | F4 E2 D2 | C2 B,2 D2 E2 | %44
w: ve- ri- tas Do-|mi- ni ma-|net in ae-||ter- num,||et ve- ri-|tas Do- mi- ni|
 F4 C4 | D2 F3 E D2- | DC A,2 B,2 G,2 | D8 |] %48
w: ma- net|in ae- * *|* * * ter- *|num.|
V:3
 G4 d4- | d2 d2 d4 | c4 B3 c | d2 e4 d2- | d2 c2 d4 | G8 | z8 | z8 | z8 | z8 | z8 | z2 d2 d2 d2 | %12
w: Lau- da-|* te Do-|mi- num o-|mnes gen- *||tes,||||||lau- da- te|
 f4 e2 d2- | d2 c2 dcBA | B4 A4 | z4 z2 A2 | A2 A2 c4 | B2 A2 c3 d | e2 d2 cBAG | A4 G4 | %20
w: e- um o-|* mnes po- * * *|pu- li,|lau-|da- te o-|mnes po- * *||pu- li,|
 z4 z2 d2- | d2 c2 d2 A2 | B3 c de f2 | e2 d4 c2 | d4 A4 | z8 | z4 z2 d2- | d2 c2 d2 A2 | B4 A4 | %29
w: quo-|* ni- am con|fir- * * * ma-|ta est su-|per nos,||con-|* fir- ma- *|ta est,|
 z2 d4 c2 | d2 A2 B3 c | de f4 e2 | d2 c2 B4 | A4 B4 | A4 z2 f2- | f2 e2 d2 c2 | B2 A2 G3 A | %37
w: mi- se-|ri- cor- * *|* * * di-|a e- *|* ius,|_ et|_ ve- ri- tas|Do- mi- ni _|
 B2 c3 BAG | F2 G2 A2 F2 | B4 A4 | G4 z4 | z2 f4 e2 | d2 c2 B2 A2 | G3 A B2 c2- | cBAG F2 G2 | %45
w: _ ma- * * *|* net in ae-|ter- *|num,|et ve-|ri- tas Do- mi|ni _ _ ma-|* * * * * net|
 A2 F2 B4 | A4 G4- | G8 |] %48
w: in ae- ter-|* num.|_|
V:4
 z4 D4 | G6 G2 | A2 F2 G4 | G4 F4 | E4 D4 | z8 | z8 | z8 | z8 | z8 | z4 z2 G2 | G2 G2 B4- | %12
w: Lau-|da- te|Do- mi- num|o- mnes|gen- tes,||||||da-|te e- um|
 B2 A2 G2 F2 | E2 E2 D4 | z4 z2 D2 | D2 D2 F4- | F2 ED CDEF | G2 F4 ED | C2 D2 F2 E2 | D4 z2 G2- | %20
w: _ o- * mnes|po- pu- li,|lau-|da- te o-|* mnes _ _ _ _ _|_ po- * *|* * * pu-|li, quo-|
 G2 F2 G2 D2 | E4 D2 F2 | G2 B4 A2 | G2 F2 E4 | D4 z4 | z8 | z8 | z8 | z2 G2 G2 F2 | G2 D2 F2 E2 | %30
w: * ni- am con|fir- ma- *|* * ta|est su- per|nos,||||mi- se- ri-|co- di- a e-|
 D4 z4 | z8 | z8 | z4 z2 d2- | d2 c2 B2 A2 | G4 F4 | G2 D2 E4 | D2 C2 F4- | F2 E2 D3 C | B,3 C D4 | %40
w: ius,|||et|_ ve- ri- tas|Do- mi-|ni ma- net|in ae- ter-||* * num,|
 z2 d4 c2 | B2 A2 G4 | F4 G2 D2 | E4 D2 C2 | F6 E2 | D4 B,3 C | D4 G4- | G8 |] %48
w: et ve-|ri- tas Do-|mi- ni ma-|net in ae-|ter- *||* num.|_|

